icons/smile.svg

<svg width="24" height="24" viewBox="0 0 24 24" xmlns="http://www.w3.org/2000/svg">
    <path fill-rule="evenodd"
        d="M12 22C17.5228 22 22 17.5228 22 12C22 6.47715 17.5228 2 12 2C6.47715 2 2 6.47715 2 12C2 17.5228 6.47715 22 12 22ZM8.5 10C9.32843 10 10 9.32843 10 8.5C10 7.67157 9.32843 7 8.5 7C7.67157 7 7 7.67157 7 8.5C7 9.32843 7.67157 10 8.5 10ZM12 14C10.6035 14 9.42752 13.0449 9.09444 11.7507L7.15756 12.2493C7.71256 14.4056 9.66881 16 12 16C14.3312 16 16.2874 14.4056 16.8424 12.2493L14.9055 11.7507C14.5724 13.0449 13.3965 14 12 14ZM17 8.5C17 9.32843 16.3284 10 15.5 10C14.6716 10 14 9.32843 14 8.5C14 7.67157 14.6716 7 15.5 7C16.3284 7 17 7.67157 17 8.5Z" />
</svg>

<svg xmlns="http://www.w3.org/2000/svg" width="24" height="24" viewBox="0 0 24 24">
    <path
        d="M12 22c5.523 0 10-4.477 10-10S17.523 2 12 2 2 6.477 2 12s4.477 10 10 10zM8.5 10c.828 0 1.5-.672 1.5-1.5S9.328 7 8.5 7 7 7.672 7 8.5 7.672 10 8.5 10zm3.5 4c-1.396 0-2.572-.955-2.906-2.25l-1.936.5C7.713 14.405 9.668 16 12 16c2.331 0 4.287-1.594 4.842-3.75l-1.936-.5C14.572 13.046 13.396 14 12 14zm5-5.5c0 .828-.672 1.5-1.5 1.5S14 9.328 14 8.5 14.672 7 15.5 7s1.5.672 1.5 1.5z" />
</svg>
